X:1
T:Shallo Brown
M:4/4
L:1/4
K:G
 G D3/2 E/2 G| A/2 B3/2 A2| A A2 B| A G E2| E c3/2 B/2A/2-G/2| E/2 E3/2 D2|\
 E G2 D| E G D2|

